layout/main/dist/assets/main/img/contacts/telegram.svg

<svg width="36" height="36" viewBox="0 0 36 36" fill="none" xmlns="http://www.w3.org/2000/svg">
<path d="M18 36C27.9411 36 36 27.9411 36 18C36 8.05887 27.9411 0 18 0C8.05887 0 0 8.05887 0 18C0 27.9411 8.05887 36 18 36Z" fill="#039BE5"/>
<path d="M8.23665 17.6098L25.5917 10.9183C26.3972 10.6273 27.1006 11.1148 26.8396 12.3328L26.8411 12.3313L23.8861 26.2528C23.6671 27.2398 23.0806 27.4798 22.2601 27.0148L17.7601 23.6983L15.5896 25.7893C15.3496 26.0293 15.1471 26.2318 14.6821 26.2318L15.0016 21.6523L23.3416 14.1178C23.7046 13.7983 23.2606 13.6183 22.7821 13.9363L12.4757 20.4253L8.03265 19.0393C7.06815 18.7333 7.04715 18.0748 8.23665 17.6098Z" fill="white"/>
</svg>

<svg width="36" height="36" viewBox="0 0 36 36" fill="none" xmlns="http://www.w3.org/2000/svg"><path d="M18 36c9.941 0 18-8.059 18-18S27.941 0 18 0 0 8.059 0 18s8.059 18 18 18z" fill="#039BE5"/><path d="M8.237 17.61l17.355-6.692c.805-.29 1.509.197 1.248 1.415l.001-.002-2.955 13.922c-.219.987-.805 1.227-1.626.762l-4.5-3.317-2.17 2.091c-.24.24-.443.443-.908.443l.32-4.58 8.34-7.534c.363-.32-.081-.5-.56-.182l-10.306 6.49-4.443-1.387c-.965-.306-.986-.964.204-1.43z" fill="#fff"/></svg>
